kora/apps/scalable/xhydra.svg

<svg xmlns="http://www.w3.org/2000/svg" width="48" height="48" version="1.1">
 <rect style="opacity:0.2" width="40" height="40" x="4" y="5" rx="3" ry="3"/>
 <rect style="fill:#008366" width="40" height="40" x="4" y="4" rx="3" ry="3"/>
 <path style="opacity:0.2" d="m 21.845703,9.0122656 c -0.509761,0.042057 -0.700868,0.1208035 -0.892578,0.3632812 -0.206023,0.2605794 -0.382673,0.321083 -1.134766,0.390625 -0.572972,0.052982 -0.975553,0.1572465 -1.128906,0.2929692 -0.295581,0.261597 -0.574219,0.897018 -0.574219,1.310547 0,0.293265 0.02887,0.306225 0.480469,0.234375 0.266338,-0.04238 0.67843,-0.01156 0.927735,0.07031 0.365391,0.119979 0.421678,0.180067 0.304687,0.320313 -0.08346,0.10005 -0.368852,0.07226 -0.681641,0.07226 -0.626998,0 -0.692544,0.1746 -0.255859,0.679688 l 0.28125,0.326172 L 19.65625,12.815 c 0.551463,-0.294081 0.94017,-0.225716 1.328125,-0.0078 0.147752,0.08299 0.813278,0.18189 1.480469,0.21875 1.134199,0.06267 0.832936,0.08878 1.107422,0.40625 0.177934,0.205802 0.422606,0.493563 0.421875,0.730468 -0.0025,0.798642 -0.984361,2.213209 -2.650391,4.183594 -0.843469,0.997555 -1.009619,1.988774 -1.011719,2.470703 -6.6e-4,0.147452 -0.05388,0.298981 -0.117187,0.337891 -0.121429,0.07466 -0.197285,-0.384311 -0.3125,-1.890625 -0.114093,-1.491656 -0.394963,-2.186217 -1.041016,-2.84961 -0.379076,-0.389251 -0.730894,-0.621293 -1.083984,-0.714843 -0.617509,-0.163598 -0.654976,-0.288959 -0.152344,-0.496094 0.202933,-0.08363 0.369141,-0.199953 0.369141,-0.257813 0,-0.148391 -0.562477,-0.270271 -0.925782,-0.201171 -0.372636,0.07087 -0.38191,0.0052 -0.04687,-0.34961 0.659141,-0.698044 -0.462723,-0.53649 -1.626953,0.234375 -1.044839,0.691816 -1.682337,1.265082 -1.779297,1.779297 -0.06119,0.324479 -0.256754,0.607844 -0.695312,1.009766 -0.813086,0.745161 -0.997164,1.122499 -0.892578,1.816406 0.152516,1.011862 0.269225,1.094731 0.74414,0.533203 0.297637,-0.351916 0.988479,-0.717908 1.115235,-0.591797 0.123771,0.123138 -0.195665,0.562215 -0.56836,0.78125 -0.471065,0.276837 -0.465845,0.471689 0.01563,0.638672 0.457242,0.158583 0.542298,0.116463 0.800782,-0.392578 0.298046,-0.586945 0.648823,-0.917874 1.140625,-1.076172 0.243718,-0.07845 0.703071,-0.382126 1.021484,-0.675781 0.318414,-0.293653 0.639271,-0.533203 0.712891,-0.533203 0.252706,0 0.719778,0.58405 0.845703,1.05664 0.06931,0.260109 0.187369,1.294237 0.261719,2.298829 0.229235,3.09643 0.542444,4.369786 1.675781,6.824218 0.363346,0.786891 0.660156,1.509329 0.660156,1.605469 0,0.129641 -0.250894,0.195193 -0.972656,0.257813 -1.707745,0.148211 -2.424378,0.724798 -2.548828,2.052734 -0.04487,0.478758 -0.0026,0.757059 0.162109,1.068359 0.339948,0.642409 0.543755,0.630407 0.453125,-0.02734 -0.07758,-0.563117 0.128089,-0.922631 0.28125,-0.492188 0.113116,0.317901 0.548757,0.771484 0.740234,0.771484 0.194971,0 0.19669,-0.01767 0.04297,-0.419922 -0.13462,-0.352271 -0.05271,-0.387763 0.291016,-0.128906 0.328825,0.247631 0.439539,0.126676 0.355468,-0.388672 -0.133059,-0.815767 0.477667,-0.969046 2.035157,-0.509765 0.757121,0.223263 0.966589,0.243275 1.300781,0.123047 0.637782,-0.229448 1.123096,-0.1744 1.539062,0.173828 0.418847,0.350638 0.07911,0.710245 -0.21289,1.125 -0.297374,0.422395 -0.762711,0.600583 -1.927734,0.742187 -0.590215,0.07174 -1.20292,0.215779 -1.363282,0.320313 -0.319335,0.208169 -0.576172,0.674919 -0.576172,1.048828 0,0.321832 0.147408,0.301285 0.46875,-0.06641 0.14704,-0.168248 0.377936,-0.304688 0.513672,-0.304688 0.308556,0 0.309825,0.06568 0.002,0.455078 -0.221617,0.28031 -0.348604,1.011719 -0.175781,1.011719 0.03837,0 0.25132,-0.192186 0.47461,-0.427734 0.223291,-0.235547 0.523755,-0.427735 0.667968,-0.427735 0.305997,0 0.32288,0.09284 0.07422,0.419922 -0.18532,0.243774 -0.253281,1.051369 -0.08789,1.042969 0.05073,-0.0026 0.203436,-0.180355 0.339844,-0.396485 0.231541,-0.366865 0.521443,-0.553663 1.496094,-0.96289 0.215308,-0.0904 1.036348,-0.843437 1.824219,-1.671875 1.407442,-1.479898 1.832858,-1.513933 1.792968,-2.017578 l -0.04102,-0.513672 0.984375,-0.148438 c 1.262637,-0.447742 2.354454,-0.484456 3.089843,-0.105468 0.975712,0.502839 1.897458,1.373999 1.763672,2.193359 -0.09846,0.603001 -0.431648,1.329186 -1.273437,1.410156 -1.666023,0.160248 -1.792855,0.05511 -2.361328,0.320313 -1.200768,0.560188 -1.838218,1.862653 -1.560547,3.193359 0.260188,1.246944 1.325794,2.072759 2.957031,2.44336 0.513163,0.116641 1.198273,0.15545 2.060547,0.11914 2.159575,-0.09091 3.540474,-0.619204 4.697266,-1.800781 0.42324,-0.432309 0.968685,-1.323819 1.167968,-1.828125 L 40,38.000547 v -3 l -2.5,1.5 1.167969,0.701172 c -0.172473,0.14264 -0.399293,0.351244 -0.65625,0.615234 -1.136128,1.167176 -1.914863,1.581213 -3.335938,1.771485 -1.166112,0.156132 -2.724824,-0.0077 -3.519531,-0.357422 C 30.504645,38.944251 30,38.324972 30,37.863828 c 0,-0.433741 0.520467,-0.830552 1.148438,-0.851562 1.698926,-0.05683 2.015624,-0.210938 2.015624,-0.210938 1.223335,-0.36995 2.66211,-2.482758 2.66211,-3.8125 0,-0.339319 0.05359,-0.756225 0.11914,-0.927734 0.09727,-0.254522 0.04113,-0.473496 -0.304687,-1.191406 -0.287912,-0.597686 -0.398356,-0.974794 -0.347656,-1.175782 0.06142,-0.243453 -0.05299,-0.424788 -0.646485,-1.021484 -0.642213,-0.645668 -0.705272,-0.951009 -0.570312,-1.166016 0.08335,-0.132777 0.152344,-0.269144 0.152344,-0.302734 0,-0.03359 -0.319824,-0.220571 -0.708985,-0.416016 -0.389162,-0.195446 -0.843053,-0.465302 -1.009765,-0.599609 -0.262346,-0.21135 -0.281495,-0.271756 -0.136719,-0.445312 0.09201,-0.11029 0.135283,-0.232115 0.0957,-0.271485 -0.03958,-0.03938 -0.502174,-0.15134 -1.027344,-0.25 -1.185162,-0.222641 -1.369059,-0.319238 -1.417968,-0.742187 -0.02141,-0.185097 -0.08202,-0.332172 -0.134766,-0.326172 -0.05274,0.0059 -0.641366,0.110621 -1.308594,0.232422 -1.311582,0.239424 -1.609375,0.206831 -1.609375,-0.177735 0,-0.317013 0.0025,-0.318606 -0.818359,0.117188 -1.340425,0.711643 -2.428741,0.552477 -2.091797,-0.566407 0.08475,-0.281427 0.31399,-0.744246 0.509765,-1.027343 0.782883,-1.132081 1.994843,-1.491589 4.738282,-1.617188 1.528831,-0.06999 2.217148,-0.138027 2.666015,-0.339843 0.70805,-0.318354 1.354549,-0.880426 1.658203,-1.441407 0.1299,-0.239973 0.277829,-0.435547 0.330079,-0.435547 0.256625,0 0.58789,-0.522057 0.58789,-0.927734 0,-0.549059 0.252975,-0.509049 0.402344,0.06445 0.1482,0.568999 0.400286,0.288774 0.384766,-0.427734 -0.01316,-0.607668 0.07821,-0.676942 0.353515,-0.269531 0.297797,0.440671 0.39456,0.146761 0.22461,-0.675782 -0.163648,-0.792048 -1.230574,-2.728897 -1.671875,-3.285156 -0.139826,-0.17625 -0.409569,-0.351915 -0.597657,-0.390625 -0.258676,-0.05323 -0.461861,-0.267658 -0.833984,-0.882813 -0.279868,-0.46265 -0.642767,-0.893716 -0.84375,-0.998046 -0.317199,-0.164655 -0.409203,-0.162177 -0.892578,0.02148 -0.587562,0.223249 -0.64044,0.314981 -0.335938,0.566406 0.245059,0.202343 0.658204,1.133607 0.658204,1.482422 -10e-7,0.249145 -0.0042,0.250051 -0.25586,0.02344 -0.140874,-0.126837 -0.536417,-0.425196 -0.636719,-0.66211 -0.174192,-0.411479 -0.190808,-0.420254 -0.359375,-0.193359 -0.311196,0.41887 -0.223923,0.997925 0.195313,1.294922 0.410351,0.290708 0.779951,0.929449 0.917969,1.58789 0.04937,0.235548 0.19427,0.60074 0.322265,0.810547 0.479861,0.786728 0.387384,2.069103 -0.351562,2.417969 -0.257152,0.121404 -1.087054,0.230487 -2.361328,0.310547 -2.931021,0.184176 -3.982878,0.560558 -5.388672,1.933594 -0.671866,0.656212 -0.716309,0.680937 -0.636719,0.347656 0.127658,-0.534565 0.183134,-1.250197 1.398438,-2.830078 1.559611,-2.027474 1.77759,-2.514579 1.77539,-3.96875 -0.0041,-1.243108 -0.172977,-2.657549 -1.498047,-3.726563 -0.272941,-0.188185 -0.466317,-0.390247 -0.429687,-0.449219 0.03663,-0.05897 0.290277,-0.1074216 0.5625,-0.1074216 0.57688,0 0.587737,-0.1883702 0.03125,-0.5117187 C 24.219801,9.1822296 22.680639,8.9433855 21.845703,9.0122656 Z"/>
 <path style="fill:#badc86" d="M 21.845703 8.0117188 C 21.335942 8.053776 21.144835 8.1325223 20.953125 8.375 C 20.747102 8.6355794 20.570452 8.696083 19.818359 8.765625 C 19.245387 8.8186068 18.842806 8.9228715 18.689453 9.0585938 C 18.393872 9.3201915 18.115234 9.9556122 18.115234 10.369141 C 18.115234 10.662406 18.144102 10.675366 18.595703 10.603516 C 18.862041 10.561136 19.274133 10.591958 19.523438 10.673828 C 19.888829 10.793807 19.945116 10.853895 19.828125 10.994141 C 19.744665 11.094191 19.459273 11.066406 19.146484 11.066406 C 18.519486 11.066406 18.45394 11.241006 18.890625 11.746094 L 19.171875 12.072266 L 19.65625 11.814453 C 20.207713 11.520372 20.59642 11.588737 20.984375 11.806641 C 21.132127 11.889628 21.797653 11.988531 22.464844 12.025391 C 23.599043 12.088059 23.29778 12.114174 23.572266 12.431641 C 23.7502 12.637443 23.994872 12.925204 23.994141 13.162109 C 23.991686 13.960751 23.00978 15.375318 21.34375 17.345703 C 20.500281 18.343258 20.334131 19.334477 20.332031 19.816406 C 20.331371 19.963858 20.278154 20.115387 20.214844 20.154297 C 20.093415 20.228962 20.017559 19.769986 19.902344 18.263672 C 19.788251 16.772016 19.507381 16.077455 18.861328 15.414062 C 18.482252 15.024811 18.130434 14.792769 17.777344 14.699219 C 17.159835 14.535621 17.122368 14.41026 17.625 14.203125 C 17.827933 14.119495 17.994141 14.003172 17.994141 13.945312 C 17.994141 13.796921 17.431664 13.675041 17.068359 13.744141 C 16.695723 13.815012 16.686449 13.749343 17.021484 13.394531 C 17.680625 12.696487 16.558761 12.858041 15.394531 13.628906 C 14.349692 14.320722 13.712194 14.893988 13.615234 15.408203 C 13.554047 15.732682 13.35848 16.016047 12.919922 16.417969 C 12.106836 17.16313 11.922758 17.540468 12.027344 18.234375 C 12.17986 19.246237 12.296569 19.329106 12.771484 18.767578 C 13.069121 18.415662 13.759963 18.04967 13.886719 18.175781 C 14.01049 18.298919 13.691054 18.737996 13.318359 18.957031 C 12.847294 19.233868 12.852514 19.42872 13.333984 19.595703 C 13.791226 19.754286 13.876282 19.712166 14.134766 19.203125 C 14.432812 18.61618 14.783589 18.285251 15.275391 18.126953 C 15.519109 18.048506 15.978462 17.744827 16.296875 17.451172 C 16.615289 17.157519 16.936146 16.917969 17.009766 16.917969 C 17.262472 16.917969 17.729544 17.502019 17.855469 17.974609 C 17.92478 18.234718 18.042838 19.268846 18.117188 20.273438 C 18.346423 23.369868 18.659632 24.643224 19.792969 27.097656 C 20.156315 27.884547 20.453125 28.606985 20.453125 28.703125 C 20.453125 28.832766 20.202231 28.898318 19.480469 28.960938 C 17.772724 29.109149 17.056091 29.685736 16.931641 31.013672 C 16.886772 31.49243 16.929014 31.770731 17.09375 32.082031 C 17.433698 32.72444 17.637505 32.712438 17.546875 32.054688 C 17.469297 31.491571 17.674964 31.132057 17.828125 31.5625 C 17.941241 31.880401 18.376882 32.333984 18.568359 32.333984 C 18.76333 32.333984 18.765049 32.316318 18.611328 31.914062 C 18.476708 31.561791 18.558616 31.526299 18.902344 31.785156 C 19.231169 32.032787 19.341883 31.911832 19.257812 31.396484 C 19.124753 30.580717 19.735479 30.427438 21.292969 30.886719 C 22.05009 31.109982 22.259558 31.129994 22.59375 31.009766 C 23.231532 30.780318 23.716846 30.835366 24.132812 31.183594 C 24.551659 31.534232 24.211918 31.893839 23.919922 32.308594 C 23.622548 32.730989 23.157211 32.909177 21.992188 33.050781 C 21.401973 33.12252 20.789268 33.26656 20.628906 33.371094 C 20.309571 33.579263 20.052734 34.046013 20.052734 34.419922 C 20.052734 34.741754 20.200142 34.721207 20.521484 34.353516 C 20.668524 34.185268 20.89942 34.048828 21.035156 34.048828 C 21.343712 34.048828 21.344981 34.114509 21.037109 34.503906 C 20.815492 34.784216 20.688505 35.515625 20.861328 35.515625 C 20.899695 35.515625 21.112648 35.323439 21.335938 35.087891 C 21.559229 34.852344 21.859693 34.660156 22.003906 34.660156 C 22.309903 34.660156 22.326786 34.752994 22.078125 35.080078 C 21.892805 35.323852 21.824844 36.131447 21.990234 36.123047 C 22.040968 36.120454 22.19367 35.942692 22.330078 35.726562 C 22.561619 35.359697 22.851521 35.172899 23.826172 34.763672 C 24.04148 34.673272 24.86252 33.920235 25.650391 33.091797 C 27.057833 31.611899 27.483249 31.577864 27.443359 31.074219 L 27.402344 30.560547 L 28.386719 30.412109 C 29.649356 29.964367 30.741173 29.927653 31.476562 30.306641 C 32.452274 30.80948 33.37402 31.68064 33.240234 32.5 C 33.141775 33.103001 32.808586 33.829186 31.966797 33.910156 C 30.300774 34.070404 30.173942 33.965264 29.605469 34.230469 C 28.404701 34.790657 27.767251 36.093122 28.044922 37.423828 C 28.30511 38.670772 29.370716 39.496587 31.001953 39.867188 C 31.515116 39.983829 32.200226 40.022638 33.0625 39.986328 C 35.222075 39.895418 36.602974 39.367124 37.759766 38.185547 C 38.183006 37.753238 38.728451 36.861728 38.927734 36.357422 L 40 37 L 40 34 L 37.5 35.5 L 38.667969 36.201172 C 38.495496 36.343812 38.268676 36.552416 38.011719 36.816406 C 36.875591 37.983582 36.096856 38.397619 34.675781 38.587891 C 33.509669 38.744023 31.950957 38.580214 31.15625 38.230469 C 30.504645 37.943704 30 37.324425 30 36.863281 C 30 36.42954 30.520467 36.032729 31.148438 36.011719 C 32.847364 35.954886 33.164062 35.800781 33.164062 35.800781 C 34.387397 35.430831 35.826172 33.318023 35.826172 31.988281 C 35.826172 31.648962 35.879762 31.232056 35.945312 31.060547 C 36.04258 30.806025 35.986438 30.587051 35.640625 29.869141 C 35.352713 29.271455 35.242269 28.894347 35.292969 28.693359 C 35.354387 28.449906 35.239978 28.268571 34.646484 27.671875 C 34.004271 27.026207 33.941212 26.720866 34.076172 26.505859 C 34.159517 26.373082 34.228516 26.236715 34.228516 26.203125 C 34.228516 26.169534 33.908692 25.982554 33.519531 25.787109 C 33.130369 25.591663 32.676478 25.321807 32.509766 25.1875 C 32.24742 24.97615 32.228271 24.915744 32.373047 24.742188 C 32.465057 24.631898 32.50833 24.510073 32.46875 24.470703 C 32.429168 24.431322 31.966576 24.319363 31.441406 24.220703 C 30.256244 23.998062 30.072347 23.901465 30.023438 23.478516 C 30.002032 23.293419 29.941422 23.146344 29.888672 23.152344 C 29.835929 23.158268 29.247306 23.262965 28.580078 23.384766 C 27.268496 23.62419 26.970703 23.591597 26.970703 23.207031 C 26.970703 22.890018 26.973188 22.888425 26.152344 23.324219 C 24.811919 24.035862 23.723603 23.876696 24.060547 22.757812 C 24.145298 22.476385 24.374537 22.013566 24.570312 21.730469 C 25.353195 20.598388 26.565155 20.23888 29.308594 20.113281 C 30.837425 20.04329 31.525742 19.975254 31.974609 19.773438 C 32.682659 19.455084 33.329158 18.893012 33.632812 18.332031 C 33.762712 18.092058 33.910641 17.896484 33.962891 17.896484 C 34.219516 17.896484 34.550781 17.374427 34.550781 16.96875 C 34.550781 16.419691 34.803756 16.459701 34.953125 17.033203 C 35.101325 17.602202 35.353411 17.321977 35.337891 16.605469 C 35.324727 15.997801 35.416102 15.928527 35.691406 16.335938 C 35.989203 16.776609 36.085966 16.482699 35.916016 15.660156 C 35.752368 14.868108 34.685442 12.931259 34.244141 12.375 C 34.104315 12.19875 33.834572 12.023085 33.646484 11.984375 C 33.387808 11.931147 33.184623 11.716717 32.8125 11.101562 C 32.532632 10.638912 32.169733 10.207846 31.96875 10.103516 C 31.651551 9.9388616 31.559547 9.9413394 31.076172 10.125 C 30.48861 10.348249 30.435732 10.439981 30.740234 10.691406 C 30.985293 10.893749 31.398438 11.825013 31.398438 12.173828 C 31.398437 12.422973 31.394264 12.423879 31.142578 12.197266 C 31.001704 12.070429 30.606161 11.77207 30.505859 11.535156 C 30.331667 11.123677 30.315051 11.114902 30.146484 11.341797 C 29.835288 11.760667 29.922561 12.339722 30.341797 12.636719 C 30.752148 12.927427 31.121748 13.566168 31.259766 14.224609 C 31.30914 14.460157 31.454036 14.825349 31.582031 15.035156 C 32.061892 15.821884 31.969415 17.104259 31.230469 17.453125 C 30.973317 17.574529 30.143415 17.683612 28.869141 17.763672 C 25.93812 17.947848 24.886263 18.32423 23.480469 19.697266 C 22.808603 20.353478 22.76416 20.378203 22.84375 20.044922 C 22.971408 19.510357 23.026884 18.794725 24.242188 17.214844 C 25.801799 15.18737 26.019778 14.700265 26.017578 13.246094 C 26.013508 12.002986 25.844601 10.588545 24.519531 9.5195312 C 24.24659 9.3313461 24.053214 9.1292845 24.089844 9.0703125 C 24.126472 9.0113411 24.380121 8.9628906 24.652344 8.9628906 C 25.229224 8.9628906 25.240081 8.7745204 24.683594 8.4511719 C 24.219801 8.1816828 22.680639 7.9428387 21.845703 8.0117188 z"/>
 <path style="fill:#ffffff;opacity:0.2" d="M 7 4 C 5.338 4 4 5.338 4 7 L 4 8 C 4 6.338 5.338 5 7 5 L 41 5 C 42.662 5 44 6.338 44 8 L 44 7 C 44 5.338 42.662 4 41 4 L 7 4 z"/>
</svg>

<svg clip-rule="evenodd" fill-rule="evenodd" stroke-linejoin="round" stroke-miterlimit="2" viewBox="0 0 48 48" xmlns="http://www.w3.org/2000/svg">
 <linearGradient id="a" x2="1" gradientTransform="matrix(0 -39.8835 39.8835 0 24 43.8835)" gradientUnits="userSpaceOnUse">
  <stop stop-color="#025d49" offset="0"/>
  <stop stop-color="#008366" offset="1"/>
 </linearGradient>
 <g transform="matrix(1.0834 0 0 1.0834 -2.0016 -2.0016)">
  <path d="m9.749 4h28.502c3.174 0 5.749 2.575 5.749 5.749v28.502c0 3.174-2.575 5.749-5.749 5.749h-28.502c-3.174 0-5.749-2.575-5.749-5.749v-28.502c0-3.174 2.575-5.749 5.749-5.749z" fill="url(#a)"/>
  <path d="m21.846 8.012c-.51.042-.701.121-.893.363-.206.261-.383.321-1.135.391-.573.053-.975.157-1.129.293-.295.261-.574.897-.574 1.31 0 .293.029.306.481.235.266-.043.678-.012.927.07.366.12.422.18.305.32-.083.1-.369.072-.682.072-.627 0-.692.175-.255.68l.281.326.484-.258c.552-.294.94-.225 1.328-.007.148.083.814.182 1.481.218 1.134.063.833.089 1.107.407.178.205.423.493.422.73-.002.799-.984 2.213-2.65 4.184-.844.997-1.01 1.988-1.012 2.47-.001.148-.054.299-.117.338-.122.075-.197-.384-.313-1.89-.114-1.492-.395-2.187-1.041-2.85-.379-.389-.731-.621-1.084-.715-.617-.163-.655-.289-.152-.496.203-.084.369-.2.369-.258 0-.148-.562-.27-.926-.201-.372.071-.382.005-.047-.349.66-.699-.462-.537-1.626.234-1.045.692-1.683 1.265-1.78 1.779-.061.325-.257.608-.695 1.01-.813.745-.997 1.122-.893 1.816.153 1.012.27 1.095.744.534.298-.352.989-.718 1.116-.592.123.123-.196.562-.569.781-.471.277-.465.472.016.639.457.158.542.116.801-.393.298-.587.649-.918 1.14-1.076.244-.078.703-.382 1.022-.676.318-.293.639-.533.713-.533.252 0 .72.584.845 1.057.07.26.188 1.294.262 2.298.229 3.097.543 4.37 1.676 6.825.363.787.66 1.509.66 1.605 0 .13-.251.195-.973.258-1.707.148-2.424.725-2.548 2.053-.045.478-.003.757.162 1.068.34.642.544.63.453-.027-.078-.563.128-.923.281-.492.113.317.549.771.74.771.195 0 .197-.018.043-.42-.134-.352-.052-.388.291-.129.329.248.44.127.356-.389-.133-.815.477-.969 2.035-.509.757.223.967.243 1.301.123.638-.23 1.123-.175 1.539.174.419.35.079.71-.213 1.125-.297.422-.763.6-1.928.742-.59.072-1.203.216-1.363.32-.319.208-.576.675-.576 1.049 0 .322.147.301.468-.066.148-.169.378-.305.514-.305.309 0 .31.066.002.455-.222.28-.348 1.012-.176 1.012.039 0 .252-.193.475-.428.223-.236.524-.428.668-.428.306 0 .323.093.074.42-.185.244-.253 1.051-.088 1.043.051-.003.204-.18.34-.396.232-.367.522-.554 1.496-.963.215-.091 1.037-.844 1.824-1.672 1.408-1.48 1.833-1.514 1.793-2.018l-.041-.513.985-.149c1.262-.448 2.354-.484 3.09-.105.975.502 1.897 1.374 1.763 2.193-.098.603-.431 1.329-1.273 1.41-1.666.16-1.793.055-2.362.32-1.2.561-1.838 1.863-1.56 3.194.26 1.247 1.326 2.073 2.957 2.443.513.117 1.198.156 2.061.119 2.159-.091 3.54-.619 4.697-1.8.423-.433.968-1.324 1.168-1.829l1.072.643v-3l-2.5 1.5 1.168.701c-.173.143-.399.351-.656.615-1.136 1.168-1.915 1.582-3.336 1.772-1.166.156-2.725-.008-3.52-.358-.651-.286-1.156-.906-1.156-1.367 0-.433.52-.83 1.148-.851 1.699-.057 2.016-.211 2.016-.211 1.223-.37 2.662-2.483 2.662-3.813 0-.339.054-.756.119-.927.098-.255.041-.474-.304-1.192-.288-.598-.399-.975-.348-1.176.061-.243-.053-.424-.647-1.021-.642-.646-.705-.951-.57-1.166.084-.133.153-.269.153-.303 0-.033-.32-.22-.709-.416-.39-.195-.844-.465-1.01-.599-.263-.212-.282-.272-.137-.446.092-.11.135-.232.096-.271-.04-.04-.502-.152-1.028-.25-1.185-.223-1.369-.32-1.418-.742-.021-.186-.082-.333-.134-.327-.053.006-.642.111-1.309.233-1.312.239-1.609.207-1.609-.178 0-.317.002-.319-.819.117-1.34.712-2.428.553-2.091-.566.084-.282.314-.744.509-1.028.783-1.132 1.995-1.491 4.739-1.617 1.528-.07 2.217-.138 2.666-.34.708-.318 1.354-.88 1.658-1.441.13-.24.278-.436.33-.436.257 0 .588-.522.588-.927 0-.549.253-.509.402.064.148.569.4.289.385-.428-.013-.607.078-.676.353-.269.298.441.395.147.225-.676-.164-.792-1.231-2.729-1.672-3.285-.14-.176-.409-.352-.598-.391-.258-.053-.461-.267-.833-.882-.28-.463-.643-.894-.844-.998-.317-.165-.409-.163-.893.021-.587.223-.64.315-.336.566.245.203.658 1.134.658 1.483 0 .249-.004.25-.255.023-.141-.127-.537-.425-.637-.662-.174-.411-.191-.42-.36-.193-.311.419-.223.998.196 1.295.41.29.78.929.918 1.588.049.235.194.6.322.81.48.787.387 2.069-.352 2.418-.257.122-1.087.231-2.361.311-2.931.184-3.983.56-5.389 1.933-.671.656-.716.681-.636.348.127-.535.183-1.25 1.398-2.83 1.56-2.028 1.778-2.515 1.776-3.969-.004-1.243-.173-2.657-1.498-3.726-.273-.189-.467-.391-.43-.45.036-.059.29-.107.562-.107.577 0 .588-.188.032-.512-.464-.269-2.003-.508-2.838-.439z" fill="#badc86" fill-rule="nonzero"/>
 </g>
</svg>
